X:1
T:In His Keeping
T:Lelia Naylor Morris, 1898
T:In His Keeping
T:Public Domain
T:Public Domain
T:Public Domain
C:Lelia Naylor Morris, 1898
Z:Public Domain
%%score ( 1 2 ) ( 3 4 )
L:1/8
M:3/4
K:F
V:1 treble 
V:2 treble 
V:3 bass 
V:4 bass 
V:1
 [A,C]>[B,D] | [A,C]3 [CA] [CG][CF] | [CE]2 [Ec]2 [B,C]>[B,D] | [B,C]3 [EB] [FA][EG] | %4
w: 1.~When the|ear- ly morn- ing|break- ing, Slum- ber|from my eye- lids|
w: 2.~Some- times|dark clo- uds hang|o’er me, Not one|step I see be-|
w: 3.~Gen- tle|e- ven- tide is|near- ing, Light from|heav- en dis- ap-|
 [CF]2 [Fc]2 [Fc]>[Fc] | [Fd]3 [Fc] [EB][FA] | [DG]2 [B,D]4 | [DF]3 [DE] [DF][FA] | %8
w: shak- ing, Comes the|bless- èd tho’t with|wak- ing,|I am in His|
w: fore me, Still, my|Sav- ior, I a-|dore Thee,|I am in His|
w: pear- ing, Still the|bless- èd tho’t so|cheer- ing,|I am in His|
 [FA]2 [EG]2 [B,C]>[B,D] | [A,C]3 [CA] [CG][CF] | [CE]2 [Ec]2 [B,C]>[B,D] | [B,C]3 [EB] [FA][EG] | %12
w: keep- ing. Day ad-|vanc- es, la- bor|bring- ing, Care, her|man- tle ’round me|
w: keep- ing. I can|trust His hand to|guide me, ’Neath His|wings He’ll safe- ly|
w: keep- ing. Now night’s|cur- tains ga- ther|’round me, Yet its|dan- gers have not|
 [CF]2 [Fc]2 [Fc]>[Fc] | [Fd]3 [Fc] [F=B][Fc] | [Ff]2 [F=B]4 | [Fc]3 [EB] D[CE] | [CF]4 || %17
w: fling- ing, Yet midst|all my soul keeps|sing- ing,|I am in His||
w: hide me, And no|harm can e’er be-|tide me,|I am in His|I|
w: found me, For His|an- gel guards sur-|round me,|I am in His||
"^Refrain" F>[EG] | [FA]3 [FA] [FB][FA] | [FA]2 [EG]2 [CE]>[CF] | [EG]3 [EB] [FA][EG] | %21
w: ||||
w: am in|Fa- ther’s keep- ing,|I am in His|ten- der care; Whe-|
w: ||||
 [FA]4 [FA]>[FB] | [Fc]3 [Fc] [FB][FA] | [DG]2 [GB]2 [FA][DG] | (F3 G) [CE]2 | [CF]4 |] %26
w: |||||
w: ther wak- ing,|whe- ther sleep- ing,|I am in His|care. * *||
w: |||||
V:2
 x2 | x6 | x6 | x6 | x6 | x6 | x6 | x6 | x6 | x6 | x6 | x6 | x6 | x6 | x6 | x4 D x | x4 || %17
w: |||||||||||||||care.||
w: |||||||||||||||care.||
w: |||||||||||||||care.||
 F3/2 x/ | x6 | x6 | x6 | x6 | x6 | x6 | C4 x2 | x4 |] %26
w: |||||||||
w: my|||||||||
w: |||||||||
V:3
 F,>F, | F,3 [F,C] [F,B,][F,A,] | [C,G,]2 [C,G,]2 [C,E,]>[C,F,] | [C,E,]3 [C,G,] [C,C][C,B,] | %4
 [F,A,]2 [F,A,]2 [F,A,]>[F,A,] | B,3 [A,C] [G,C][F,C] | [B,,B,]2 [B,,F,]4 | %7
 [G,,=B,]3 [G,,B,] [G,,B,][G,,B,] | [C,C]2 [C,C]2 [C,E,]>[C,E,] | F,3 [F,C] [F,B,][F,A,] | %10
 [C,G,]2 [C,G,]2 [C,E,]>[C,F,] | [C,E,]3 [C,G,] [C,C][C,B,] | [F,A,]2 [F,A,]2 [F,A,]>[F,A,] | %13
 [F,B,]3 [F,A,] [F,^G,][F,A,] | [_D,_A,]2 [D,A,]4 | [C,A,]3 [C,G,] [C,B,][C,B,] | [F,A,]4 || %17
 [F,A,]>[F,B,] | [F,C]3 [F,C] [F,D][F,C] | [C,C]2 [C,B,]2 [C,G,]>[C,A,] | %20
 [C,B,]3 [C,G,] [C,C][C,C] | [F,C]4 F,>[F,G,] | [F,A,]3 [F,A,] [F,D][F,C] | %23
 [B,,B,]2 [G,,D]2 [A,,C][B,,B,] | (A,3 B,) [C,G,]2 | [F,A,]4 |] %26
V:4
 F,>F, | F,3 x3 | x6 | x6 | x6 | B,3 x3 | x6 | x6 | x6 | F,3 x3 | x6 | x6 | x6 | x6 | x6 | x6 | %16
 x4 || x2 | x6 | x6 | x6 | x4 F,3/2 x/ | x6 | x6 | C,4 x2 | x4 |] %26

